X:21
T:Margarets Waltz
M:3/4
R:Waltz
S:phelan-2/44
L:1/8
K:G
GE | D2>E2 GA    | B4 GB    | AG E2 G2 | A2>A2 GE | D2>E2 GA    | B4dG    | B4 A2    | G4    :|
Bc | d2    e2 f2 | g2 f2 g2 | ed cd ec | d2>d2 BA | G2>A2 (3BAG | d4   Bd | ed c2 B2 | A4 Bc  |
     dG    eG fG | gG fG eG | dG cG BG | A2>B2 GE | D2>E2 GA    | B4   dG | B4 A2    | G4     |]